!!!COM: Bach, Wilhelm Friedemann ??
!!!OTL: Fuga
**kern	**kern	**kern	**kern
*MM60	*MM60	*MM60	*MM60
*k[b-e-a-]	*k[b-e-a-]	*k[b-e-a-]	*k[b-e-a-]
*M2/2	*M2/2	*M2/2	*M2/2
*tb32	*tb32	*tb32	*tb32
2r	2G	2r	2r
=1	=1	=1	=1
1r	2C	1r	1r
.	[2c	.	.
=2	=2	=2	=2
1r	4c]	1r	1r
.	4B-	.	.
.	4E-	.	.
.	[4A-	.	.
=3	=3	=3	=3
1r	4A-]	1r	1r
.	4G	.	.
.	4C	.	.
.	[4F	.	.
=4	=4	=4	=4
1r	4F]	1r	1r
.	8E-	.	.
.	8D	.	.
.	4E-	.	.
.	4C	.	.
=5	=5	=5	=5
1r	2.DT	1r	1r
.	4D	.	.
=6	=6	=6	=6
1r	2.C	2r	1r
.	.	2c	.
.	4D	.	.
=7	=7	=7	=7
1r	4E-	2G	1r
.	4D	.	.
.	4E-	[2g	.
.	8F	.	.
.	8G	.	.
=8	=8	=8	=8
1r	4A-	4g]	1r
.	8B-	4f	.
.	8A-	.	.
.	4G	4B-	.
.	8A-	[4e-	.
.	8G	.	.
=9	=9	=9	=9
1r	4F	4e-]	1r
.	8G	4d	.
.	8F	.	.
.	4E-	4G	.
.	8D	[4c	.
.	8C	.	.
=10	=10	=10	=10
1r	4D	4c]	1r
.	4GG	8B	.
.	.	8A	.
.	[2G	4B	.
.	.	4G	.
=11	=11	=11	=11
1r	8G]	2AT	1r
.	8C	.	.
.	2F	.	.
.	.	2A-	.
.	[4F	.	.
=12	=12	=12	=12
1r	4F]	2G	1r
.	8E-	.	.
.	8D	.	.
.	4E-	[2c	.
.	4C	.	.
=13	=13	=13	=13
1r	4D	2c]	1r
.	8E-	.	.
.	8F	.	.
.	4G	[2B	.
.	4F	.	.
=14	=14	=14	=14
1r	2E-	4B]	2r
.	.	2c	.
.	2E	.	2g
.	.	[4B-	.
=15	=15	=15	=15
1r	2.F	4B-]	2c
.	.	8A-	.
.	.	8G	.
.	.	4A-	[2cc
.	4E	4c	.
=16	=16	=16	=16
1r	4F	4d-	4cc]
.	4G	8e-	4b-
.	.	8d-	.
.	4A-	4c	4e-
.	[4F	8d-	[4a-
.	.	8c	.
=17	=17	=17	=17
1r	4F]	4B-	4a-]
.	4E	8c	4g
.	.	8B-	.
.	4F	2A-	4c
.	4D-	.	[4f
=18	=18	=18	=18
1r	4BB	2.G	4f]
.	4GG	.	8e-
.	.	.	8d
.	[2C	.	4e-
.	.	4A-	4c
=19	=19	=19	=19
1r	2C]	4F	2.dT
.	.	4E-	.
.	2BB	4F	.
.	.	4G	4d
=20	=20	=20	=20
1r	2BB-	4E	2.c
.	.	4C	.
.	2AA-	[2F	.
.	.	.	8d
.	.	.	8c
=21	=21	=21	=21
1r	1GG	4F]	2B
.	.	8E-	.
.	.	8D	.
.	.	4E-	[2c
.	.	4C	.
=22	=22	=22	=22
1r	2FF#	2D	4c]
.	.	.	8B-
.	.	.	8A
.	2GG	[2G	4B-
.	.	.	4G
=23	=23	=23	=23
2r	2DD	2G]	4A
.	.	.	8B-
.	.	.	8c
2D	2D	2F#	4B-
.	.	.	4A
=24	=24	=24	=24
2GG	2G	2G	4B-
.	.	.	4G
[2G	4B-	2r	2r
.	4B-	.	.
=25	=25	=25	=25
4G]	4A-	1r	1r
4F	8B-	.	.
.	8A-	.	.
4BB-	4G	.	.
[4E-	8A-	.	.
.	8G	.	.
=26	=26	=26	=26
4E-]	4F	1r	1r
4D	8G	.	.
.	8F	.	.
4GG	4E-	.	.
[4C	8F	.	.
.	8E-	.	.
=27	=27	=27	=27
4C]	4D	2r	1r
8BB	4F	.	.
8AA	.	.	.
2BB	4E-	2g	.
.	4D	.	.
=28	=28	=28	=28
2BB-	4E	2c	1r
.	8C	.	.
.	8D	.	.
2AA	4E-	[2cc	.
.	8F	.	.
.	8E-	.	.
=29	=29	=29	=29
2BB	2D	4cc]	1r
.	.	4b-	.
4C	4E-	4e-	.
[4FF	8D-	[4a-	.
.	8C	.	.
=30	=30	=30	=30
4FF]	4BB	4a-]	1r
4EE	8C	4g	.
.	8BB-	.	.
[4FF	4AA-	4c	.
8FF]	4AA	[4f	.
8EE-	.	.	.
=31	=31	=31	=31
4DD	4BB-	4f]	1r
4GG	4BB	8e-	.
.	.	8d	.
4CC	[2C	4e-	.
4EE-	.	4c	.
=32	=32	=32	=32
4FF	2.C]	2.dT	1r
8EE-	.	.	.
8DD	.	.	.
2GG	.	.	.
.	4BB	4d	.
=33	=33	=33	=33
2AA-	4C	4c	1r
.	4C	2f	.
4AA	[2F	.	.
8GG	.	4e-	.
8FF	.	.	.
=34	=34	=34	=34
2BB-	4F]	4d	1r
.	4D	2g	.
4BB	[2G	.	.
8AA	.	4f	.
8GG	.	.	.
=35	=35	=35	=35
[1C	2G]	4e-	1r
.	.	8d	.
.	.	8c	.
.	4c	8a-	.
.	.	8g	.
.	4B-	8f#	.
.	.	8g	.
=36	=36	=36	=36
2C]	2A	4f#	1r
.	.	8e	.
.	.	8d	.
4BB-	[2G	4g	.
8AA	.	8a	.
8GG	.	8b-	.
=37	=37	=37	=37
2.D	4G]	1a	2r
.	8F#	.	.
.	8E	.	.
.	2F#	.	2dd
4C	.	.	.
=38	=38	=38	=38
4BB-	2.G	2g	2g
8C	.	.	.
8D	.	.	.
2E-	.	4r	[2gg
.	[4e-	4b-	.
=39	=39	=39	=39
2F	4e-]	2.a-	4gg]
.	4d	.	4ff
4G	4e-	.	4b-
4G	4B-	[4g	[4ee-
=40	=40	=40	=40
4A	4c	4g]	4ee-]
4B	4d	2f	4dd
4c	2c	.	4g
4C	.	4e-	[4cc
=41	=41	=41	=41
[1D	2F#	2.d	4cc]
.	.	.	8b-
.	.	.	8a
.	4G	.	4b-
.	8B-	[4g	4g
.	8G	.	.
=42	=42	=42	=42
2.D]	[1d	4g]	1a
.	.	8f#	.
.	.	8e	.
.	.	2f#	.
8D	.	.	.
8E-	.	.	.
=43	=43	=43	=43
4F	4d]	2.g	4b
8E-	4e-	.	2cc
8F	.	.	.
2G	2d	.	.
.	.	8g	[4b-
.	.	8f	.
=44	=44	=44	=44
2.C	[1c	4e	4b-]
.	.	2f	4a-
.	.	.	2g
8C	.	4e	.
8D	.	.	.
=45	=45	=45	=45
4E-	4c]	2.f	4a
8D	4d	.	2b-
8E-	.	.	.
2F	2c	.	.
.	.	8f	[4a-
.	.	8e-	.
=46	=46	=46	=46
2B-	2.B-	4d	4a-]
.	.	2e-	4g
2BB-	.	.	2f
.	8B-	4d	.
.	8A-	.	.
=47	=47	=47	=47
2EE-	2G	2B-	2e-
[2E-	4r	2r	2r
.	4G	.	.
=48	=48	=48	=48
4E-]	4F	1r	1r
4D	2B-	.	.
4GG	.	.	.
[4C	4E-	.	.
=49	=49	=49	=49
4C]	4D	1r	1r
4BB-	2G	.	.
4EE-	.	.	.
[4AA-	4C	.	.
=50	=50	=50	=50
4AA-]	2BB-	1r	1r
8GG	.	.	.
8FF	.	.	.
4GG	[2E-	.	.
4EE-	.	.	.
=51	=51	=51	=51
2FF	4E-]	1r	2r
.	8D	.	.
.	8C	.	.
2BB-	8D	.	2b-
.	8E-	.	.
.	8C	.	.
.	8D	.	.
=52	=52	=52	=52
2C	2E-	2r	2e-
2r	2r	4r	[2ee-
.	.	4g	.
=53	=53	=53	=53
1r	1r	4f	4ee-]
.	.	2b-	4dd
.	.	.	4g
.	.	4e-	[4cc
=54	=54	=54	=54
1r	1r	4d	4cc]
.	.	2g	4b-
.	.	.	4e-
.	.	4c	[4a-
=55	=55	=55	=55
1r	1r	2B-	4a-]
.	.	.	8g
.	.	.	8f
.	.	[2e-	4g
.	.	.	4e-
=56	=56	=56	=56
1r	1r	2e-]	2.fT
.	.	2d	.
.	.	.	4f
=57	=57	=57	=57
1r	1r	4d-	2e-
.	.	8c	.
.	.	8B-	.
.	.	4c	[2a-
.	.	4d	.
=58	=58	=58	=58
1r	1r	4e-	4a-]
.	.	4B-	8g
.	.	.	8f
.	.	[2e-	4g
.	.	.	4e-
=59	=59	=59	=59
1r	1r	4e-]	2f
.	.	8d	.
.	.	8c	.
.	.	4d	[2b-
.	.	4e	.
=60	=60	=60	=60
1r	1r	4f	4b-]
.	.	4c	8a-
.	.	.	8g
.	.	[2f	4a-
.	.	.	4f
=61	=61	=61	=61
1r	2r	2f]	2.gT
.	2c	2e	.
.	.	.	4g
=62	=62	=62	=62
1r	2F	2f	2a-
.	[2f	4r	2r
.	.	4a-	.
=63	=63	=63	=63
4r	4f]	4g	1r
4C	4e-	4cc	.
2D-	4A-	4r	.
.	[4d-	4f	.
=64	=64	=64	=64
4r	4d-]	4e-	1r
4AA-	4c	4a-	.
2BB-	4F	4r	.
.	[4B-	4d-	.
=65	=65	=65	=65
4r	4B-]	2.c	1r
4EE	8A-	.	.
.	8G	.	.
4FF	4A-	.	.
4AA-	4F	[4f	.
=66	=66	=66	=66
2.BB-	1G	4f]	2r
.	.	8e	.
.	.	8d	.
.	.	2e	2cc
8C	.	.	.
8BB-	.	.	.
=67	=67	=67	=67
2AA-	2F	2f	2f
4r	4r	2r	[2ff
4A-	4c	.	.
=68	=68	=68	=68
4B-	4d-	1r	4ff]
4c	4e-	.	4ee-
4d-	4f	.	4a-
4F	4A-	.	[4dd-
=69	=69	=69	=69
4G	4B-	1r	4dd-]
4A	4c	.	4cc
4B-	2d-	.	4f
8G	.	.	[4b-
8F	.	.	.
=70	=70	=70	=70
4E	2.c	1r	4b-]
4C	.	.	8a-
.	.	.	8g
[2F	.	.	4a-
.	4A-	.	4f
=71	=71	=71	=71
2F]	4B-	1r	2.gT
.	4A-	.	.
2E	4B-	.	.
.	8c	.	4g
.	8B-	.	.
=72	=72	=72	=72
[1F	4A-	1r	4f
.	4B-	.	4g
.	4c	.	2a-
.	8d-	.	.
.	8c	.	.
=73	=73	=73	=73
2F]	4B	1r	2.g
.	4G	.	.
2E-	[2c	.	.
.	.	.	8a-
.	.	.	8g
=74	=74	=74	=74
2D	2c]	4f	2r
.	.	8g	.
.	.	8f	.
2G	2B	4e-	2gg
.	.	4d	.
=75	=75	=75	=75
2A-	2c	2c	2cc
2r	4r	4r	[2ccc
.	8f	8a-	.
.	8e-	8g	.
=76	=76	=76	=76
1r	2d	4f	4ccc]
.	.	8g	4bb-
.	.	8f	.
.	2c	4e-	4ee-
.	.	8f	[4aa-
.	.	8e-	.
=77	=77	=77	=77
1r	2B-	4d	4aa-]
.	.	8e-	4gg
.	.	8d	.
.	2A-	4c	4cc
.	.	8d	[4ff
.	.	8c	.
=78	=78	=78	=78
1r	2.G	2B	4ff]
.	.	.	8ee-
.	.	.	8dd
.	.	[2c	4ee-
.	4A-	.	4cc
=79	=79	=79	=79
1r	2F	4c]	2.ddT
.	.	8B	.
.	.	8A	.
.	4G	2B	.
.	4F	.	4dd
=80	=80	=80	=80
1r	2E	4B-	[1cc
.	.	8A-	.
.	.	8G	.
.	[2F	4A-	.
.	.	8B-	.
.	.	8c	.
=81	=81	=81	=81
1r	4F]	2d-	4cc]
.	4G	.	4b-
.	4A-	2c	4e-
.	4C	.	[4a-
=82	=82	=82	=82
1r	4D	2B-	4a-]
.	4E	.	4g
.	4F	2A-	4c
.	4D-	.	[4f
=83	=83	=83	=83
1r	2BB	2G	4f]
.	.	.	8e-
.	.	.	8d
.	2C	[2c	4e-
.	.	.	4c
=84	=84	=84	=84
2r	[1G	4c]	2.dT
.	.	8B	.
.	.	8A	.
2GG	.	2B	.
.	.	.	8e-
.	.	.	8f
=85	=85	=85	=85
2CC	2G]	2c	[2e-
[2C	2r	2r	8e-]
.	.	.	8g
.	.	.	8e-
.	.	.	8cc
=86	=86	=86	=86
4C]	1r	1r	8f
.	.	.	8a-
4BB-	.	.	8g
.	.	.	[8dd-
4EE-	.	.	8dd-]
.	.	.	8b-
[4AA-	.	.	8cc
.	.	.	8e-
=87	=87	=87	=87
4AA-]	1r	1r	8d
.	.	.	8f
4GG	.	.	8e
.	.	.	[8b-
4CC	.	.	8b-]
.	.	.	8g
[4FF	.	.	8a-
.	.	.	8c
=88	=88	=88	=88
4FF]	1r	1r	8B
.	.	.	8d
8EE-	.	.	[4c
8DD	.	.	.
4EE-	.	.	8c]
.	.	.	8g
4CC	.	.	8e-
.	.	.	8cc
=89	=89	=89	=89
2DD	1r	1r	8f
.	.	.	8g
.	.	.	8f
.	.	.	8cc
2GG	.	.	8f
.	.	.	8g
.	.	.	8f
.	.	.	8b
=90	=90	=90	=90
2CC	2r	2r	8e-
.	.	.	8g
.	.	.	8cc
.	.	.	8e-
4r	4.d	8r	4r
.	.	4.g	.
4G	.	.	4b
.	8d	.	.
=91	=91	=91	=91
4A	2c	8r	4r
.	.	4g	.
4AA	.	.	4cc
.	.	[8g	.
4BB	2f	8g]	4r
.	.	4g	.
4B	.	.	4dd
.	.	8g	.
=92	=92	=92	=92
4c	4.e-	8r	4r
.	.	[4.g	.
4C	.	.	4cc
.	8e-	.	.
4G	4.d	8g]	4r
.	.	4.g	.
4GG	.	.	4b
.	8d	.	.
=93	=93	=93	=93
4AA	2c	8r	4r
.	.	4g	.
4A	.	.	4cc
.	.	[8g	.
4B	4.f	8g]	4r
.	.	[4.g	.
4G	.	.	4dd
.	8f	.	.
=94	=94	=94	=94
4c	4.e-	8g]	4r
.	.	[4.g	.
4C	.	.	4cc
.	8e-	.	.
4G	4d	4g]	4b
4r	4r	4r	4g
=95	=95	=95	=95
2r	2r	2r	2c
4r	4r	4r	[2cc
4C	4C 4E- 4G	4c 4e- 4g	.
=96	=96	=96	=96
2GG	2GG 2D 2G	2d 2g	4cc]
.	.	.	4b-
4r	4r	4r	4e-
4AA-	4C 4E- 4A-	4c 4e-	[4a-
=97	=97	=97	=97
2EE-	2BB- 2E-	2B- 2e-	4a-]
.	.	.	4g
4r	4r	4r	4c
4FF	4FF 4AA- 4C 4F	4A- 4c	[4f
=98	=98	=98	=98
[1CC	2GG 2C	2G 2c	4f]
.	.	.	8e-
.	.	.	8d
.	4r	4r	4e-
.	[4C	4E- 4G	4c
=99	=99	=99	=99
1CC]	4C]	2F 2A-	1d
.	8BB	.	.
.	8AA	.	.
.	2BB 2G	4r	.
.	.	8G	.
.	.	8F	.
=100	=100	=100	=100
[1CC	4BB-	2E 2G	[1c
.	8AA-	.	.
.	8GG	.	.
.	4AA-	2AA- 2F	.
.	4FF 4A-	.	.
=101	=101	=101	=101
1CC]	1CC 1GG 1C	1E 1G	1c]
==	==	==	==
*-	*-	*-	*-
!!!ENC: Peter van Kranenburg (peter@musical-style-recognition.net)
!!!END: 2006-11-9
